X: 49
T: Kerry Polka #4    [A]
M: C|
Z: From Roaring Jelly collection; modified by John Chambers
R: polka
K: A
|:\
"A"E3F A2c2 | E3F A2c2 |\
[1,3 "D"B2F2 F2EF | A2F2 "E"FAGF :| \
[2,4"D"B2F2 "E"G2FG | "A"B2A2 A4 :|
|:\
"A"e2c2 c2Bc | e2c2 c3B |\
[1,3 "F#m"A2F2 F2EF | "D"A2F2 "E"F2E2 :|\
[2,4 "D"A2F2 "E"G2FG | "A"B2A2 A4 :|

%%sep 1 1 500

